docs/img/svg/up_top.svg

<svg xmlns="http://www.w3.org/2000/svg" preserveAspectRatio="xMidYMid" width="17" height="17" viewBox="0 0 17 17"><defs><style>.cls-1{fill:#818181;fill-rule:evenodd}</style></defs><path d="M8.5 17a8.5 8.5 0 1 1 0-17 8.5 8.5 0 0 1 0 17zm0-15.938a7.438 7.438 0 1 0 0 14.876 7.438 7.438 0 0 0 0-14.876zm3.339 6.698L9.037 4.997v8.284c0 .293-.24.531-.537.531a.534.534 0 0 1-.536-.531V4.997L5.161 7.759a.54.54 0 0 1-.759 0 .527.527 0 0 1 0-.751l3.719-3.665a.547.547 0 0 1 .379-.156c.14 0 .28.057.38.156l3.718 3.666a.528.528 0 0 1 0 .751.541.541 0 0 1-.759 0z" class="cls-1"/></svg>

<svg xmlns="http://www.w3.org/2000/svg" xmlns:xlink="http://www.w3.org/1999/xlink" preserveAspectRatio="xMidYMid" width="17" height="17" viewBox="0 0 17 17">
  <defs>
    <style>
      .cls-1 {
        fill: #818181;
        fill-rule: evenodd;
      }
    </style>
  </defs>
  <path d="M8.500,17.000 C3.805,17.000 -0.000,13.194 -0.000,8.500 C-0.000,3.806 3.805,-0.000 8.500,-0.000 C13.194,-0.000 17.000,3.806 17.000,8.500 C17.000,13.194 13.194,17.000 8.500,17.000 ZM8.500,1.062 C4.392,1.062 1.062,4.392 1.062,8.500 C1.062,12.607 4.392,15.937 8.500,15.937 C12.607,15.937 15.937,12.607 15.937,8.500 C15.937,4.392 12.607,1.062 8.500,1.062 ZM11.839,7.760 L9.037,4.997 L9.037,13.281 C9.037,13.574 8.797,13.812 8.500,13.812 C8.204,13.812 7.964,13.574 7.964,13.281 L7.964,4.997 L5.161,7.759 C4.952,7.967 4.612,7.967 4.402,7.759 C4.193,7.552 4.192,7.216 4.402,7.008 L8.121,3.343 C8.220,3.245 8.360,3.187 8.500,3.187 C8.640,3.187 8.780,3.244 8.880,3.343 L12.598,7.009 C12.807,7.216 12.807,7.552 12.598,7.760 C12.389,7.967 12.049,7.967 11.839,7.760 Z" class="cls-1"/>
</svg>
